X: 16621
T: Handy With The Bottle
R: jig
M: 6/8
K: Dmajor
|:A|ded cBA|BBB AFE|DFA FAB|Agf edc|
ded cBA|BBB AFE|DFA FAB|Afe d2:|
|:e|fdf ~g3|ece gfe|aef g2e|Ace gfe|
fdf ~g3|ecA GFE|DFA FAB|Afe d2:|

